X: 35117
T: Rolling Waves, The
R: jig
M: 6/8
K: Dmajor
F3 EDE|~F3 ~D3|F2E EFA|d2e fdA|
~F3 EDE|~F3 ~D3|AEE EFA|BAB dAG|
F3 EDE|~F3 ~D3|F2E EFA|cdA cdA|
~F3 EDE|~F3 ~D3|AEE EFA|BAB d2B||
AB/c/d e2f|d2c ~B3|AB/c/d e2f|dBA BdB|
AB/c/d ede|fdB BAF|AEE EFA|BAB d2B|
AB/c/d e2f|d2c ~B3|AB/c/d eag|edc BdB|
AB/c/d ede|fdB BAF|AEE EFA|BAB dAG||

